X:41
T:Wayfaring Stranger
S:Jim Coon to CoMandoList TOW
M:4/4
L:1/4
Q:1/4=120
K:F
"Dm" D D A| A4-|A G "A7"A G| "Dm"F
 D3-|DDDA|"Gm"G4-|GDFG|"Dm"A4-|A DDA|!
A- A3-|AG "A7"AG|"Dm"F D3-|D DD A|"G" G4-|"Gm"G FDC|\
"DM"D4-|D AAc|!
"Bb"d4-| "Am"d Acd|"Gm"AG3-|"Dm"GAAc|!
"Bb"d4-|"C"d c dc|"F"A4-|"A7"AABc|"Dm"A4-|\
A  F"A7"GA|"Dm"FD3-|D DDA|!
"G"G4-|"Gm"GFDC|"Dm"D4-|D||
